X:1
T:O Sweet Rest
T:O Sweet Rest
T:Jonas Trumbauer
T:C. F. O., 1898
T:Public Domain Courtesy of the Cyber Hymnal™
T:Public Domain Courtesy of the Cyber Hymnal™
C:Jonas Trumbauer
Z:Public Domain
Z:Courtesy of the Cyber Hymnal™
%%score ( 1 2 ) ( 3 4 )
L:1/8
Q:1/4=105
M:3/4
K:Eb
V:1 treble 
V:2 treble 
V:3 bass 
V:4 bass 
V:1
 E>[EG] | [GB]3 [GB] [GB]2 | ([EG] [EG]3) [GB]2 | [Ac]4 [Ac]>[Ac] | [GB]4 [EG]2 | %5
w: 1.~For the|peo- ple of|God * a|rest doth re-|main, Press|
w: 2.~O how|long I’d been|praying * to|find this sweet|rest, To|
w: 3.~Oh, at|last I have|found~it, * this|bless- èd, sweet|rest, ’Tis|
w: 4.~Now the|Sav- ior is|waiting, * O|what will you|give? And|
 [GB]4 [AB]>[AB]B B3 ([GB][GB]) | [FB]2 [FA]2 [EG]2 | [DF]4 [DB]>[DA] | [EG]4 [EG]>[DF] | %9
w: on, pre- cious souls, till~this rest *|you ob- tain;|’Tis the rest|Je- sus prom-|
w: cease from my labor, and lean *|on His breast;|I am wea-|ry, dear Je-|
w: Christ in His fullness, the Bless- *|er pos- sessed;|And no more|wea- ry wait-|
w: what will you suffer, this rest *|to re- ceive?|Will you give|up for- ev-|
 E E3 [GB]2 | [Ac]3 [Ac] [Ac]2 | [GB]4 [EB]2 | [Ee]4 [Ec]>[Ec] | [EB] [EG]3 (EF) | %14
w: ised, so hap-|py and blest,|The joy|of His pre-|sence, a per- *|
w: sus, how soon|may it be?|Low down|in the val-|ley I’m wait- *|
w: ing for Je-|sus to come,|For Christ|dwell- eth in|me, my heart *|
w: er, count all|things but loss,|To gain|this great trea-|sure, and die *|
 [EG] [EG]3 [DF]2 | E6 ||"^Refrain" [GB]4 [EG]2 | [B,E]6 | [Be]4 [Ac]2 | [GB]4 E>[EG] | %20
w: fect sweet rest.||||||
w: ing for Thee.||||||
w: is His home.||||||
w: at the cross?||||||
 [GB]4 [AB]>[AB] | [GB]4 [GB]2 | [FB]2 [FA]2 [EG]2 | [DF]4 (B>A) | [EG]4 [EG]>[DF] | E E3 [GB]2 | %26
w: ||||||
w: ||||||
w: ||||||
w: ||||||
 [Ac]3 [Ac] [Ac]2 | [GB]4 [EB]2 | [Ee]4 [Ec]>[Ec] | [EB] [EG]3 (EF) | [EG] [EG]3 [DF]2 | E6 |] %32
w: ||||||
w: ||||||
w: ||||||
w: ||||||
V:2
 E3/2 x/ | x6 | x6 | x6 | x6 | x6 (B B3) x2 | x6 | x6 | x6 | E E3 x2 | x6 | x6 | x6 | x4 E2 | x6 | %15
 E6 || x6 | x6 | x6 | x4 E3/2 x/ | x6 | x6 | x6 | x4 D2 | x6 | E E3 x2 | x6 | x6 | x6 | x4 E2 | %30
 x6 | E6 |] %32
V:3
 [E,G,]>[E,B,] | [E,E]3 [E,E] [E,E]2 | ([E,B,] [E,B,]3) [E,E]2 | [A,E]4 [A,E]>[A,E] | %4
w: ||||
 [E,E]4 [E,B,]2 | [E,E]4 [F,D]>[F,D]([G,E] [G,E]3) ([E,E][E,E]) | [D,B,]2 [D,B,]2 [E,B,]2 | %7
w: |||
 [B,,B,]4 [B,,B,]>[B,,B,] | [E,B,]4 [E,B,]>[F,B,] | [G,B,] [G,B,]3 [E,E]2 | [A,E]3 [A,E] [A,E]2 | %11
w: ||||
 [E,E]4 [E,G,]2 | [E,C]4 [E,A,]>[E,A,] | [E,G,] [E,B,]3 [C,=A,]2 | [B,,B,] [B,,B,]3 [B,,A,]2 | %15
w: ||||
 [E,G,]6 || [G,E]4 [E,B,]2 | [E,G,]6 | (B,2 E2) [A,E]2 | [E,E]4 [E,G,]>[E,B,] | %20
w: |O sweet|rest,|O * sweet|rest, ’Tis the|
 [E,E]4 [F,D]>[F,D] | [G,E]4 [E,B,]2 | [D,B,]2 [D,B,]2 [E,B,]2 | [B,,B,]4 [B,,B,]2 | %24
w: rest of the|soul so|hap- py and|blest; By|
 [E,B,]4 [E,B,]>[F,B,] | [G,B,] [G,B,]3 [E,E]2 | [A,E]3 [A,E] [A,E]2 | [E,E]4 [E,G,]2 | %28
w: faith in His|prom- ise I|lean on His|breast; My|
 [E,C]4 [E,A,]>[E,A,] | [E,G,] [E,B,]3 [C,=A,]2 | [B,,B,] [B,,B,]3 [B,,A,]2 | [E,G,]6 |] %32
w: soul from its|la- bor has|found its sweet|rest.|
V:4
 x2 | x6 | x6 | x6 | x6 | x12 | x6 | x6 | x6 | x6 | x6 | x6 | x6 | x6 | x6 | x6 || x6 | x6 | %18
 G,4 x2 | x6 | x6 | x6 | x6 | x6 | x6 | x6 | x6 | x6 | x6 | x6 | x6 | x6 |] %32

